app/images/google.svg

<?xml version="1.0" encoding="UTF-8"?>
<svg xmlns="http://www.w3.org/2000/svg" xmlns:xlink="http://www.w3.org/1999/xlink" width="px" height="20px" viewBox="0 0 19 19" version="1.1">
<g id="surface1">
<path style=" stroke:none;fill-rule:nonzero;fill:rgb(0%,0%,0%);fill-opacity:1;" d="M 19 9.714844 C 19 14.964844 15.226562 18.703125 9.65625 18.703125 C 4.3125 18.703125 0 14.589844 0 9.5 C 0 4.410156 4.3125 0.296875 9.65625 0.296875 C 12.257812 0.296875 14.445312 1.207031 16.128906 2.707031 L 13.503906 5.113281 C 10.066406 1.953125 3.671875 4.328125 3.671875 9.5 C 3.671875 12.710938 6.363281 15.3125 9.65625 15.3125 C 13.480469 15.3125 14.910156 12.699219 15.136719 11.34375 L 9.65625 11.34375 L 9.65625 8.179688 L 18.847656 8.179688 C 18.9375 8.648438 19 9.101562 19 9.714844 Z M 19 9.714844 "/>
</g>
</svg>

<svg xmlns="http://www.w3.org/2000/svg" width="px" height="20" viewBox="0 0 19 19"><path d="M19 9.715c0 5.25-3.773 8.988-9.344 8.988C4.312 18.703 0 14.59 0 9.5 0 4.41 4.313.297 9.656.297c2.602 0 4.79.91 6.473 2.41l-2.625 2.406c-3.438-3.16-9.832-.785-9.832 4.387 0 3.21 2.691 5.813 5.984 5.813 3.824 0 5.254-2.614 5.48-3.97h-5.48V8.18h9.192c.09.468.152.922.152 1.535zm0 0" id="surface1"/></svg>
